X:1
T:Schleswig, 12.12.12.12
T:Schleswig, 12.12.12.12
T:German melody, 14th Century
T:Public Domain Courtesy of the Cyber Hymnal™
C:German melody, 14th Century
Z:Public Domain
Z:Courtesy of the Cyber Hymnal™
%%score ( 1 2 ) ( 3 4 )
L:1/8
Q:1/4=210
M:3/4
K:G
V:1 treble 
V:2 treble 
V:3 bass 
V:4 bass 
V:1
 [DG]2 | [DG]4 [DG]2 | [GB]4 [Gc]2 | d4 e2 | [Fd]4 [Gd]2 | [EG]4 [DG]2 | [GB]4 [Gc]2 | d4 e2 | %8
 !fermata![Fd]4 [Gd]2 | [Gd]4 [Ge]2 | [Gd]4 [Gc]2 | ([GB]6 | [DG]4) G2 | [GA]4 [GA]2 | %14
 [GB]4 [FA]2 | G4 A2 | [GB]4 [Gc]2 | [Gd]4 [Ge]2 | [Fd]4 [Ac]2 | ([GB]6 | [DG]4) G2 | [GA]4 [GA]2 | %22
 [GB]4 [FA]2 | G4 ([EA]2 | [^DB]4) [DB]2 | E4 E2 | [EF]4 [^DF]2 | ([EG]6 | [Fd]4) [Fd]2 | %29
 [GB]4 [Gc]2 | [GA]4 [FA]2 | G4 |] %32
V:2
 x2 | x6 | x6 | G6 | x6 | x6 | x6 | G6 | x6 | x6 | x6 | x6 | x4 G2 | x6 | x6 | G6 | x6 | x6 | x6 | %19
 x6 | x4 G2 | x6 | x6 | G4 x2 | x6 | E4 E2 | x6 | x6 | x6 | x6 | x6 | G4 |] %32
V:3
 [G,B,]2 | [G,B,]4 [G,B,]2 | [E,G,]4 [E,G,]2 | ([B,,B,]4 [C,C]2 | [D,A,]4) [G,B,]2 | %5
 [G,C]4 [G,B,]2 | [E,G,]4 [E,G,]2 | ([B,,B,]4 [C,C]2 | !fermata![D,A,]4) [G,B,]2 | [G,B,]4 [C,C]2 | %10
 [B,,D]4 [C,E]2 | ([G,D]6 | [B,,G,]4) [B,,D]2 | [C,E]4 [C,E]2 | [D,D]4 [D,D]2 | B,4 C2 | %16
 [G,D]4 [E,E]2 | [B,,D]4 [C,C]2 | [D,A,]4 [F,D]2 | ([G,D]6 | [B,,G,]4) [B,,D]2 | [C,E]4 [C,E]2 | %22
 (D3 E) [D,C]2 | ([E,B,]4 [C,A,]2 | [B,,F,]4) [B,,F,]2 | [G,B,]4 [G,B,]2 | [F,A,]4 [F,A,]2 | %27
 B,4 C2 | [D,A,]4 [D,D]2 | [G,D]4 [E,C]2 | [C,E]4 [D,D]2 | [G,B,]4 |] %32
V:4
 x2 | x6 | x6 | x6 | x6 | x6 | x6 | x6 | x6 | x6 | x6 | x6 | x6 | x6 | x6 | G,6 | x6 | x6 | x6 | %19
 x6 | x6 | x6 | D,4 x2 | x6 | x6 | x6 | x6 | E,6 | x6 | x6 | x6 | x4 |] %32

